svg/priority-low.svg

<?xml version="1.0" encoding="UTF-8"?>
<svg xmlns="http://www.w3.org/2000/svg" xmlns:xlink="http://www.w3.org/1999/xlink" width="32" height="32" viewBox="0 0 32 32">
<path fill-rule="nonzero" fill="rgb(0%, 0%, 0%)" fill-opacity="1" d="M 31.238281 14.140625 L 17.859375 0.761719 C 16.882812 -0.214844 15.164062 -0.238281 14.074219 0.765625 L 0.761719 14.140625 C -0.253906 15.15625 -0.261719 16.8125 0.761719 17.925781 L 14.074219 31.238281 C 14.570312 31.730469 15.246094 32.003906 15.945312 32 C 16.648438 32 17.324219 31.734375 17.859375 31.238281 L 31.171875 17.925781 C 32.234375 16.863281 32.261719 15.164062 31.238281 14.140625 M 20.933594 19.011719 L 16 23.945312 L 11.066406 19.011719 C 10.945312 18.890625 10.878906 18.730469 10.878906 18.558594 C 10.878906 18.390625 10.945312 18.230469 11.066406 18.109375 C 11.316406 17.859375 11.722656 17.859375 11.972656 18.109375 L 15.359375 21.496094 L 15.359375 8.960938 C 15.359375 8.609375 15.648438 8.320312 16 8.320312 C 16.351562 8.320312 16.640625 8.609375 16.640625 8.960938 L 16.640625 21.496094 L 20.027344 18.109375 C 20.277344 17.859375 20.683594 17.859375 20.933594 18.109375 C 21.183594 18.359375 21.183594 18.761719 20.933594 19.011719 M 20.933594 19.011719 "/>
</svg>

<svg role="img" viewBox="0 0 32 32" height="32" width="32" xmlns="http://www.w3.org/2000/svg"><path d="M31.238 14.14 17.86.763c-.976-.977-2.695-1-3.785.004L.762 14.14c-1.016 1.015-1.024 2.672 0 3.785l13.312 13.312a2.64 2.64 0 0 0 1.871.762c.703 0 1.38-.266 1.914-.762l13.313-13.312c1.062-1.063 1.09-2.762.066-3.785m-10.304 4.872L16 23.945l-4.934-4.933a.637.637 0 0 1 0-.903c.25-.25.657-.25.907 0l3.386 3.387V8.961c0-.352.29-.64.641-.64.352 0 .64.288.64.64v12.535l3.387-3.387c.25-.25.657-.25.907 0s.25.653 0 .903m0 0"/></svg>
